azure-patterns/svg-video.svg

<svg xmlns="http://www.w3.org/2000/svg" viewBox="0 0 46 35">
                                
                            
    <path d="M19.3583333,19.8333333 L23.9583333,17.5 L19.3583333,15.1666667 L19.3583333,19.8333333 Z M28.75,17.5 L17.25,23.3333333 L17.25,11.6666667 L28.75,17.5 Z M8.625,8.75 L8.625,26.25 L37.375,26.25 L37.375,8.75 L8.625,8.75 Z M5.75,29.1666667 L5.75,5.83333333 L40.25,5.83333333 L40.25,29.1666667 L5.75,29.1666667 Z M2.875,2.91666667 L2.875,32.0833333 L43.125,32.0833333 L43.125,2.91666667 L2.875,2.91666667 Z M46,35 L0,35 L0,0 L46,0 L46,35 Z"></path>
</svg>

<svg xmlns="http://www.w3.org/2000/svg" viewBox="0 0 46 35"><path d="M19.358 19.833l4.6-2.333-4.6-2.333v4.666zM28.75 17.5l-11.5 5.833V11.667l11.5 5.833zM8.625 8.75v17.5h28.75V8.75H8.625zM5.75 29.167V5.833h34.5v23.334H5.75zM2.875 2.917v29.166h40.25V2.917H2.875zM46 35H0V0h46v35z"/></svg>
